X: 99
T:Belgia Retrieved
M:3/2
L:1/4
Z: alf.warnock@rogers.com
K:Am
|:"Am"A2 A/B/cBA|"E"^G2 G/A/BEB|"Em"e2e/^f/gfe|"Am"ea2"E"b^g2|
"Am"ae2^f"G"gd|"G"gd2e"F"fc|"G"dG2cB/c/d|"G"d3c"C"c2:|
|:"C"e2e/^f/ggd|"G"B2B/c/ "G#dim"ddB|"Am"cA2c'ba|"E"^g3abe|
"G"B2B/c/ddB|"Am"A>c BA"E"^Ge|"Am"a>^g ae2d|"E"c3B/A/"Am"A2:|

